X: 1
T: Napoleon
R: march
S: 358 Danske folkedansemelodier af Herluf vad Thomsena 1963
O: Danmark
Q: 1/2=76
M: 2/4
L: 1/8
K: G
   d | g2 f>e | d2 d2 | e2 f2 | g2 dd | ed cB | A2 d2  | B4-   | B2 z :|
|: d | Bd dd  | ed dd | Bd dd | ed dd | g2 a2 | ba g>g | a2 f2 | g2 z :|
